dist/img/main/pan.svg

<svg min-width="48" min-height="48" viewBox="0 0 48 48" fill="none" xmlns="http://www.w3.org/2000/svg">
<g clip-path="url(#clip0_68_8614)">
<path d="M28.4019 39H8.44118C8.19753 39 8 38.8025 8 38.5588C8 38.3152 8.19753 38.1177 8.44118 38.1177H28.4019C28.6456 38.1177 28.8431 38.3152 28.8431 38.5588C28.8431 38.8025 28.6456 39 28.4019 39Z" fill="#084D5B"/>
<path d="M37.0681 9.93127C35.9093 8.77245 34.0595 8.68427 32.7957 9.72757L20.1461 20.1704C18.8983 21.2006 17.8711 22.4718 17.126 23.908L15.1013 27.8108L19.1886 31.8982L23.0914 29.8735C24.5277 29.1283 25.7988 28.1012 26.829 26.8533L37.2718 14.2037C38.3152 12.9399 38.227 11.0901 37.0681 9.93127Z" fill="url(#paint0_linear_68_8614)"/>
<path d="M37.0681 9.93149C36.1579 9.02132 34.8216 8.77197 33.6776 9.21226C34.0815 9.36755 34.4594 9.60761 34.7832 9.93149C35.9421 11.0903 36.0302 12.9401 34.9869 14.204L24.5441 26.8536C23.514 28.1013 22.2427 29.1286 20.8065 29.8737L18.4081 31.1179L19.1886 31.8984L23.0914 29.8737C24.5277 29.1286 25.7988 28.1014 26.829 26.8536L37.2718 14.204C38.3152 12.9401 38.2269 11.0903 37.0681 9.93149Z" fill="url(#paint1_linear_68_8614)"/>
<path d="M19.2252 31.9346L18.5206 32.6392C17.811 33.3488 17.4123 34.3112 17.4123 35.3148C17.4123 36.9198 15.8921 38.0895 14.3407 37.6781C12.6308 37.2247 10.817 37.3726 9.20311 38.0969C9.01252 38.1825 8.81717 37.9872 8.9027 37.7965C9.62705 36.1826 9.77493 34.3689 9.32152 32.6589C8.91017 31.1075 10.0799 29.5873 11.6849 29.5873C12.6884 29.5873 13.6508 29.1886 14.3604 28.4791L15.0651 27.7744L19.2252 31.9346Z" fill="url(#paint2_linear_68_8614)"/>
<path d="M15.7733 25.2267L14.9032 27.0618C14.6691 27.5556 14.7708 28.1433 15.1571 28.5296L18.4703 31.8428C18.8567 32.2292 19.4443 32.3309 19.9381 32.0967L21.7732 31.2266C22.2279 31.011 22.3319 30.4101 21.976 30.0542L16.9456 25.0238C16.5899 24.6681 15.9889 24.772 15.7733 25.2267Z" fill="url(#paint3_linear_68_8614)"/>
<path d="M21.9759 30.0543L16.9455 25.0239C16.5897 24.6681 15.9887 24.772 15.7731 25.2267L15.4805 25.8438L19.691 30.0542C20.0468 30.4101 19.9429 31.0111 19.4882 31.2266L18.3796 31.7522L18.4702 31.8428C18.8566 32.2292 19.4442 32.3308 19.9379 32.0967L21.7731 31.2266C22.2278 31.0111 22.3318 30.4101 21.9759 30.0543Z" fill="url(#paint4_linear_68_8614)"/>
<path d="M14.7774 32.0929C14.2525 31.6295 13.451 31.6188 12.915 32.0693C12.4486 32.4613 12.3002 33.0719 12.4695 33.603C12.5171 33.7523 12.4786 33.9156 12.3678 34.0264L9.53082 36.8633C9.27158 37.1226 9.06535 37.4289 8.91711 37.7642C8.91235 37.7751 8.90752 37.7859 8.90264 37.7967C8.81711 37.9873 9.01241 38.1826 9.20305 38.0971C9.20305 38.0971 9.20311 38.0971 9.20317 38.0971C9.55158 37.9499 9.86858 37.7368 10.1361 37.4693L12.9733 34.632C13.0825 34.5229 13.2436 34.4806 13.3904 34.5282C13.8856 34.6886 14.4509 34.5722 14.8442 34.1789C15.4243 33.5988 15.402 32.6443 14.7774 32.0929Z" fill="#084D5B"/>
</g>
<defs>
<linearGradient id="paint0_linear_68_8614" x1="15.2247" y1="20.4491" x2="36.7241" y2="20.4491" gradientUnits="userSpaceOnUse">
<stop stop-color="#084D5B"/>
</linearGradient>
<linearGradient id="paint1_linear_68_8614" x1="9.82968" y1="20.4494" x2="34.4634" y2="20.4494" gradientUnits="userSpaceOnUse">
<stop stop-color="#003D48"/>
</linearGradient>
<linearGradient id="paint2_linear_68_8614" x1="8.0447" y1="32.946" x2="18.4448" y2="32.946" gradientUnits="userSpaceOnUse">
<stop stop-color="#FFE177"/>
<stop offset="0.5725" stop-color="#FEB137"/>
</linearGradient>
<linearGradient id="paint3_linear_68_8614" x1="14.7971" y1="28.516" x2="22.9972" y2="28.516" gradientUnits="userSpaceOnUse">
<stop stop-color="#F9F3F1"/>
<stop offset="0.5725" stop-color="#EFE2DD"/>
<stop offset="1" stop-color="#CDBFBA"/>
</linearGradient>
<linearGradient id="paint4_linear_68_8614" x1="10.2144" y1="28.516" x2="21.1451" y2="28.516" gradientUnits="userSpaceOnUse">
<stop stop-color="#F9F3F1"/>
<stop offset="0.5725" stop-color="#EFE2DD"/>
<stop offset="1" stop-color="#CDBFBA"/>
</linearGradient>
<clipPath id="clip0_68_8614">
<rect width="30" height="30" fill="white" transform="translate(8 9)"/>
</clipPath>
</defs>
</svg>

<svg viewBox="0 0 48 48" fill="none" xmlns="http://www.w3.org/2000/svg"><g clip-path="url(#clip0_68_8614)"><path d="M28.402 39H8.442a.441.441 0 110-.882h19.96a.441.441 0 110 .882z" fill="#084D5B"/><path d="M37.068 9.931a3.18 3.18 0 00-4.272-.203L20.146 20.17a12.033 12.033 0 00-3.02 3.738l-2.025 3.903 4.088 4.087 3.902-2.024a12.032 12.032 0 003.738-3.02l10.443-12.65a3.18 3.18 0 00-.204-4.273z" fill="url(#paint0_linear_68_8614)"/><path d="M37.068 9.931a3.18 3.18 0 00-3.39-.719 3.18 3.18 0 011.31 4.992l-10.444 12.65a12.033 12.033 0 01-3.738 3.02l-2.398 1.244.78.78 3.903-2.024a12.031 12.031 0 003.738-3.02l10.443-12.65a3.18 3.18 0 00-.204-4.273z" fill="url(#paint1_linear_68_8614)"/><path d="M19.225 31.935l-.704.704a3.784 3.784 0 00-1.109 2.676 2.445 2.445 0 01-3.071 2.363 7.717 7.717 0 00-5.138.419.227.227 0 01-.3-.3 7.717 7.717 0 00.419-5.138 2.445 2.445 0 012.363-3.072 3.784 3.784 0 002.675-1.108l.705-.705 4.16 4.16z" fill="url(#paint2_linear_68_8614)"/><path d="M15.773 25.227l-.87 1.835a1.293 1.293 0 00.254 1.468l3.313 3.313c.387.386.974.488 1.468.254l1.835-.87a.728.728 0 00.203-1.173l-5.03-5.03a.728.728 0 00-1.173.203z" fill="url(#paint3_linear_68_8614)"/><path d="M21.976 30.054l-5.03-5.03a.728.728 0 00-1.173.203l-.293.617 4.211 4.21a.728.728 0 01-.203 1.173l-1.108.525.09.09c.387.387.974.489 1.468.255l1.835-.87a.728.728 0 00.203-1.173z" fill="url(#paint4_linear_68_8614)"/><path d="M14.777 32.093a1.43 1.43 0 00-2.308 1.51c.048.15.01.313-.101.423L9.53 36.863a2.97 2.97 0 00-.628.934c-.086.19.11.386.3.3.349-.147.666-.36.933-.628l2.837-2.837c.11-.11.27-.151.417-.104a1.43 1.43 0 001.387-2.435z" fill="#084D5B"/></g><defs><linearGradient id="paint0_linear_68_8614" x1="15.225" y1="20.449" x2="36.724" y2="20.449" gradientUnits="userSpaceOnUse"><stop stop-color="#084D5B"/></linearGradient><linearGradient id="paint1_linear_68_8614" x1="9.83" y1="20.449" x2="34.463" y2="20.449" gradientUnits="userSpaceOnUse"><stop stop-color="#003D48"/></linearGradient><linearGradient id="paint2_linear_68_8614" x1="8.045" y1="32.946" x2="18.445" y2="32.946" gradientUnits="userSpaceOnUse"><stop stop-color="#FFE177"/><stop offset=".573" stop-color="#FEB137"/></linearGradient><linearGradient id="paint3_linear_68_8614" x1="14.797" y1="28.516" x2="22.997" y2="28.516" gradientUnits="userSpaceOnUse"><stop stop-color="#F9F3F1"/><stop offset=".573" stop-color="#EFE2DD"/><stop offset="1" stop-color="#CDBFBA"/></linearGradient><linearGradient id="paint4_linear_68_8614" x1="10.214" y1="28.516" x2="21.145" y2="28.516" gradientUnits="userSpaceOnUse"><stop stop-color="#F9F3F1"/><stop offset=".573" stop-color="#EFE2DD"/><stop offset="1" stop-color="#CDBFBA"/></linearGradient><clipPath id="clip0_68_8614"><path fill="#fff" transform="translate(8 9)" d="M0 0h30v30H0z"/></clipPath></defs></svg>
